src/assets/svg/game-audio-call/results/voice.svg

<svg width="48" height="39" viewBox="0 0 48 39" fill="none" xmlns="http://www.w3.org/2000/svg">
<g filter="url(#filter0_d_4927_701)">
<path d="M4.52197 14.7304C4.52197 13.0735 5.86512 11.7304 7.52197 11.7304H15.3553V24.6742H7.52197C5.86512 24.6742 4.52197 23.3311 4.52197 21.6742V14.7304Z" fill="#FFD234"/>
<path d="M27.9219 29.2576C27.9219 31.8559 24.8435 33.2256 22.9134 31.4861L15.3552 24.6742L15.3552 11.7303L22.8748 4.7112C24.7924 2.9212 27.9219 4.28101 27.9219 6.90424L27.9219 29.2576Z" fill="#FFD234"/>
<path fill-rule="evenodd" clip-rule="evenodd" d="M32.2554 23.4203C34.9405 23.0846 37.022 20.6953 37.022 17.7977C37.022 14.9001 34.9405 12.5109 32.2554 12.1751V23.4203Z" fill="#FFD234"/>
<path fill-rule="evenodd" clip-rule="evenodd" d="M43.5221 17.7977C43.5221 23.8563 38.602 28.8521 32.2554 29.554V27.2029C37.2524 26.0399 40.922 22.1791 40.922 17.5956C40.922 13.0121 37.2524 9.15127 32.2554 7.98828V6.04146C38.602 6.74336 43.5221 11.7392 43.5221 17.7977Z" fill="#FFD234"/>
</g>
<defs>
<filter id="filter0_d_4927_701" x="0.521973" y="1.8983" width="47" height="36.3652" filterUnits="userSpaceOnUse" color-interpolation-filters="sRGB">
<feFlood flood-opacity="0" result="BackgroundImageFix"/>
<feColorMatrix in="SourceAlpha" type="matrix" values="0 0 0 0 0 0 0 0 0 0 0 0 0 0 0 0 0 0 127 0" result="hardAlpha"/>
<feOffset dy="2"/>
<feGaussianBlur stdDeviation="2"/>
<feComposite in2="hardAlpha" operator="out"/>
<feColorMatrix type="matrix" values="0 0 0 0 0 0 0 0 0 0 0 0 0 0 0 0 0 0 0.5 0"/>
<feBlend mode="normal" in2="BackgroundImageFix" result="effect1_dropShadow_4927_701"/>
<feBlend mode="normal" in="SourceGraphic" in2="effect1_dropShadow_4927_701" result="shape"/>
</filter>
</defs>
</svg>

<svg width="48" height="39" fill="none" xmlns="http://www.w3.org/2000/svg"><g filter="url(#a)" fill="#FFD234"><path d="M4.522 14.73a3 3 0 0 1 3-3h7.833v12.944H7.522a3 3 0 0 1-3-3V14.73zM27.922 29.258c0 2.598-3.079 3.968-5.009 2.228l-7.558-6.812V11.73l7.52-7.019c1.917-1.79 5.047-.43 5.047 2.193v22.354z"/><path fill-rule="evenodd" clip-rule="evenodd" d="M32.255 23.42c2.685-.335 4.767-2.725 4.767-5.622 0-2.898-2.081-5.287-4.767-5.623V23.42z"/><path fill-rule="evenodd" clip-rule="evenodd" d="M43.522 17.798c0 6.058-4.92 11.054-11.267 11.756v-2.351c4.997-1.163 8.667-5.024 8.667-9.607 0-4.584-3.67-8.445-8.667-9.608V6.041c6.347.702 11.267 5.698 11.267 11.757z"/></g><defs><filter id="a" x=".522" y="1.898" width="47" height="36.365" filterUnits="userSpaceOnUse" color-interpolation-filters="sRGB"><feFlood flood-opacity="0" result="BackgroundImageFix"/><feColorMatrix in="SourceAlpha" values="0 0 0 0 0 0 0 0 0 0 0 0 0 0 0 0 0 0 127 0" result="hardAlpha"/><feOffset dy="2"/><feGaussianBlur stdDeviation="2"/><feComposite in2="hardAlpha" operator="out"/><feColorMatrix values="0 0 0 0 0 0 0 0 0 0 0 0 0 0 0 0 0 0 0.5 0"/><feBlend in2="BackgroundImageFix" result="effect1_dropShadow_4927_701"/><feBlend in="SourceGraphic" in2="effect1_dropShadow_4927_701" result="shape"/></filter></defs></svg>
